symbols/web/sports_soccer/materialsymbolsoutlined/sports_soccer_wght100_40px.svg

<svg xmlns="http://www.w3.org/2000/svg" height="40" width="40"><path d="M20 34.5q-3 0-5.646-1.146T9.75 30.25q-1.958-1.958-3.104-4.604Q5.5 23 5.5 20t1.146-5.646Q7.792 11.708 9.75 9.75q1.958-1.958 4.604-3.104Q17 5.5 20 5.5t5.646 1.146q2.646 1.146 4.604 3.104 1.958 1.958 3.104 4.604Q34.5 17 34.5 20t-1.146 5.646q-1.146 2.646-3.104 4.604-1.958 1.958-4.604 3.104Q23 34.5 20 34.5Zm7.625-17.375 3.208-1.042.875-3.083q-1.375-2.25-3.5-3.812-2.125-1.563-4.791-2.313L20.5 8.958v3.167Zm-15.25 0 7.125-5V8.958l-2.917-2.083q-2.625.75-4.729 2.313Q9.75 10.75 8.417 13l.875 3.083ZM9.958 29.167l2.917-.292 1.833-2.917-2.5-7.75-3.333-1.083-2.375 1.75q0 3.042.688 5.479.687 2.438 2.77 4.813ZM20 33.5q1.083 0 2.229-.208 1.146-.209 2.479-.584l1.5-3.333-1.625-2.667h-9.166l-1.542 2.667 1.542 3.333q1.166.375 2.333.584 1.167.208 2.25.208Zm-4.292-7.792h8.667l2.5-7.833L20 12.958l-6.958 4.917Zm14.334 3.459q2.083-2.375 2.77-4.813.688-2.437.688-5.479l-2.292-1.667-3.416.917-2.5 7.833 1.833 2.917Z"/></svg>

<svg xmlns="http://www.w3.org/2000/svg" height="40" width="40"><path d="M20 34.5Q17 34.5 14.354 33.354Q11.708 32.208 9.75 30.25Q7.792 28.292 6.646 25.646Q5.5 23 5.5 20Q5.5 17 6.646 14.354Q7.792 11.708 9.75 9.75Q11.708 7.792 14.354 6.646Q17 5.5 20 5.5Q23 5.5 25.646 6.646Q28.292 7.792 30.25 9.75Q32.208 11.708 33.354 14.354Q34.5 17 34.5 20Q34.5 23 33.354 25.646Q32.208 28.292 30.25 30.25Q28.292 32.208 25.646 33.354Q23 34.5 20 34.5ZM27.625 17.125 30.833 16.083 31.708 13Q30.333 10.75 28.208 9.188Q26.083 7.625 23.417 6.875L20.5 8.958V12.125ZM12.375 17.125 19.5 12.125V8.958L16.583 6.875Q13.958 7.625 11.854 9.188Q9.75 10.75 8.417 13L9.292 16.083ZM9.958 29.167 12.875 28.875 14.708 25.958 12.208 18.208 8.875 17.125 6.5 18.875Q6.5 21.917 7.188 24.354Q7.875 26.792 9.958 29.167ZM20 33.5Q21.083 33.5 22.229 33.292Q23.375 33.083 24.708 32.708L26.208 29.375L24.583 26.708H15.417L13.875 29.375L15.417 32.708Q16.583 33.083 17.75 33.292Q18.917 33.5 20 33.5ZM15.708 25.708H24.375L26.875 17.875L20 12.958L13.042 17.875ZM30.042 29.167Q32.125 26.792 32.812 24.354Q33.5 21.917 33.5 18.875L31.208 17.208L27.792 18.125L25.292 25.958L27.125 28.875Z"/></svg>
